src/icons/icons_set_01/014-livre.svg

<svg height="50" viewBox="0 0 50 50" width="50" xmlns="http://www.w3.org/2000/svg"><path d="m37.6839702 4.61609881v-4.35353631l-.7951892-.06001429c-.0700167 0-1.7504167-.13003095-4.0584661-.13003095-6.3065012 0-10.2974512.87770893-11.9378417 2.61062143-.7926887-.83269821-2.1280065-1.47035-4.0009524-1.90295298-2.0429863-.4701119-4.7111214-.70766845-7.92938747-.70766845-2.29804702 0-3.98594881.12502976-4.05846607.13003095l-.79518928.06001429v4.35353631h-4.06346727v31.31995539h41.91997859v-31.31995539zm-35.91854996 29.59704519v-27.87663567h2.33555595v25.46606187l.8927125-.0300071s.70016667-.025006 1.79042619-.025006c8.16944462 0 12.33543632 1.2077875 13.10561962 2.4630864h-18.12431426zm18.26684826-2.1580136c-2.2505358-1.3478209-6.6740887-2.0304834-13.25315481-2.0304834-.3675875 0-.69016429 0-.96022857 0v-28.15170117c.70516786-.03500833 1.82543452-.07751845 3.13324583-.07751845 6.82912555 0 11.07513635 1.14777322 11.07513635 3.00071429v27.25648813zm1.7229101-27.25648814c0-1.25029762 1.9204571-1.96296726 3.5283399-2.33305536 1.8929505-.43510357 4.5010714-.66515833 7.5467964-.66515833 1.3053107 0 2.4255774.04501072 3.1307452.08001905v28.15170118c-.2700643 0-.5926411 0-.9602286 0-6.5740648 0-11.002619.6801619-13.2531547 2.0304833v-27.25648805zm18.4844 29.42200354h-18.3443667c.7701833-1.2502976 4.936175-2.4655869 13.1056196-2.4655869 1.0902596 0 1.7829245.025006 1.7904262.025006l.8927125.0325077v-25.47606427h2.5556084v27.87663567z" transform="translate(3.995 6.995714)"/></svg>

<?xml version="1.0" encoding="UTF-8"?>
<svg width="50px" height="50px" viewBox="0 0 50 50" version="1.1" xmlns="http://www.w3.org/2000/svg" xmlns:xlink="http://www.w3.org/1999/xlink">
    <!-- Generator: Sketch 52.2 (67145) - http://www.bohemiancoding.com/sketch -->
    <title>014-livre</title>
    <desc>Created with Sketch.</desc>
    <g id="014-livre" stroke="none" stroke-width="1" fill="none" fill-rule="evenodd">
        <g id="Group" transform="translate(3.995000, 6.995714)" fill="#000000" fill-rule="nonzero">
            <g id="009-livre">
                <g id="ICONSET-01">
                    <g id="009-livre">
                        <path d="M37.6839702,4.61609881 L37.6839702,0.2625625 L36.888781,0.202548214 C36.8187643,0.202548214 35.1383643,0.0725172619 32.8303149,0.0725172619 C26.5238137,0.0725172619 22.5328637,0.95022619 20.8924732,2.68313869 C20.0997845,1.85044048 18.7644667,1.21278869 16.8915208,0.780185714 C14.8485345,0.31007381 12.1803994,0.0725172619 8.96213333,0.0725172619 C6.66408631,0.0725172619 4.97618452,0.197547024 4.90366726,0.202548214 L4.10847798,0.2625625 L4.10847798,4.61609881 L0.0450107143,4.61609881 L0.0450107143,35.9360542 L41.9649893,35.9360542 L41.9649893,4.61609881 L37.6839702,4.61609881 Z M1.76542024,34.213144 L1.76542024,6.33650833 L4.10097619,6.33650833 L4.10097619,31.8025702 L4.99368869,31.7725631 C4.99368869,31.7725631 5.69385536,31.7475571 6.78411488,31.7475571 C14.9535595,31.7475571 19.1195512,32.9553446 19.8897345,34.2106435 L1.76542024,34.2106435 L1.76542024,34.213144 Z M20.0322685,32.0551304 C17.7817327,30.7073095 13.3581798,30.024647 6.77911369,30.024647 C6.41152619,30.024647 6.0889494,30.024647 5.81888512,30.024647 L5.81888512,1.87294583 C6.52405298,1.8379375 7.64431964,1.79542738 8.95213095,1.79542738 C15.7812565,1.79542738 20.0272673,2.9432006 20.0272673,4.79614167 L20.0272673,32.0526298 L20.0322685,32.0551304 Z M21.7551786,4.79864226 C21.7551786,3.54834464 23.6756357,2.835675 25.2835185,2.4655869 C27.176469,2.03048333 29.7845899,1.80042857 32.8303149,1.80042857 C34.1356256,1.80042857 35.2558923,1.84543929 35.9610601,1.88044762 L35.9610601,30.0321488 C35.6909958,30.0321488 35.368419,30.0321488 35.0008315,30.0321488 C28.4267667,30.0321488 23.9982125,30.7123107 21.7476768,32.0626321 L21.7476768,4.80614405 L21.7551786,4.79864226 Z M40.2395786,34.2206458 L21.8952119,34.2206458 C22.6653952,32.9703482 26.8313869,31.7550589 35.0008315,31.7550589 C36.0910911,31.7550589 36.783756,31.7800649 36.7912577,31.7800649 L37.6839702,31.8125726 L37.6839702,6.33650833 L40.2395786,6.33650833 L40.2395786,34.213144 L40.2395786,34.2206458 Z" id="Shape"></path>
                    </g>
                </g>
            </g>
        </g>
    </g>
</svg>
